X:21
T:A Health to Betty
R:Jig
M:6/8
L:1/8
Q:110
K:GDor
G|G>AG ^F2D|B3 A2d|d>ed c2A|f (d2d2) e|fd2 B>cd|cA2 F2F|G>AG ^F2D|B3 A2||

